X:1
T:Title
%%score { ( 1 3 ) | ( 2 4 ) }
L:1/8
Q:1/4=120
M:2/2
K:Bb
V:1 treble nm="Grand Piano"
V:3 treble 
V:2 bass 
V:4 bass 
V:1
 [DF]4 [EG]2 [EA]2 | [DB]4 [DF]4 | G2 B2 [GB]2 G2 | [B,DF]8 | [A,CE]4 [A,DF]2 [A,EG]2 | %5
w: Robert~Lowry * *|||||
 [B,DF]4[K:bass] [F,B,D]4 | [CE]2[K:treble] D2 [CE]2 F2 | D8 | [DF]4 [EG]2 [DF]2 | [DB]4 [DF]4 | %10
w: |||||
 [Fd]2 c2 [DB]2 [FA]2 | [B,EG]8 | [Ec]4 [B,GB]2 [B,EG]2 | [B,F]4 [DFB]4 | [FA]2 B2 [CFA]2 [=EG]2 | %15
w: |||||
[M:3/4] [A,F]6 |[M:1/4] F2 |[M:4/4] c6 z2 | [Ec]2 [DB]4 B2 | B6 z2 | [DFB]2 [CFA]4 F2 | B4 z4 | %22
w: |||||||
 [Gf]2 [Ge]4 [Gc]2 | [FB]4 [EA]4 | [B,DB]8 |] %25
w: |||
V:2
 [B,,B,]4 [E,B,]2 [C,F,]2 | [B,,F,]4 [B,,B,]4 | [E,B,]2- [E,B,G]2 z2 E2 | B,,8 | F,4 F,2 F,2 | %5
 B,,4 B,,4 | z2 B,2 z2 A,2 | [B,,F,B,]8 | [B,,B,]4 [B,,B,]2 [B,,B,]2 | [B,,F,]4 [B,,B,]4 | %10
 z2 E2 B,,2 D,2 | E,8 | [E,G,]4 E,2 E,2 | D,4 B,,4 | z2 G2 z2 B,2 |[M:3/4] F,6 |[M:1/4] E2 | %17
[M:4/4] E6 z2 | [B,,B,]2 [B,,B,]4[K:treble] D2 | G6[K:bass] z2 | F,2 F,4 E2 | D4 z4 | %22
 [E,C]2 [E,B,]4 [E,E]2 | [F,D]2 F,2 F,2 F,2 | B,,8 |] %25
V:3
 x8 | x8 | z4 B,4 | x8 | x8 | x4[K:bass] x4 | x2[K:treble] x6 | x8 | x8 | x8 | z4 B,4 | x8 | x8 | %13
 x8 | C4 z4 |[M:3/4] x6 |[M:1/4] x2 |[M:4/4] z2 A,2 A,2 d2 | x8 | z2 B,2 B,2 [EGc]2 | x8 | %21
 z2 B,2 [Fd]2 [_Af]2 | x8 | z2 D2 C2 C2 | x8 |] %25
V:4
 x8 | x8 | .E4 E,4 | x8 | x8 | x8 | F,4 F,4 | x8 | x8 | x8 | [B,,B,]4 z4 | x8 | x8 | x8 | C,4 C,4 | %15
[M:3/4] x6 |[M:1/4] x2 |[M:4/4] z2 F,2 F,2 [F,A,F]2 | x6[K:treble] x2 | z2[K:bass] E,2 E,2 C,2 | %20
 x8 | z2 B,,2 [B,,B,]2 [D,B,]2 | x8 | x8 | x8 |] %25

